X:1
T:Tirunelveli, 12.12.12.12
T:Tirunelveli, 12.12.12.12
T:George Coles Stebbins, 1882
T:Public Domain Courtesy of the Cyber Hymnal™
C:George Coles Stebbins, 1882
Z:Public Domain
Z:Courtesy of the Cyber Hymnal™
%%score ( 1 2 ) ( 3 4 )
L:1/8
Q:1/4=110
M:4/4
K:A
V:1 treble 
V:2 treble 
V:3 bass 
V:4 bass 
V:1
 E2 | [CA]2 z [CE] [EA]2 [EB]2 | [Ec]6 [Ec]2 | [Fd]3 [Ec] [EB]2 [^DA]2 | [EB]6 E2 | %5
 [CA]3 [CE] [EA]2 [GB]2 | (c4 d2) [FB]2 | [EA]3 [EA] [Ec]2 [DB]2 | [CA]6 [CA]2 | %9
 [DF]3 [FA] [Fd]2 [Fd]2 | [Ec]6 [Ed]2 | [Ae]3 [Ec] [EB]2 [^DA]2 | [EB]6 E2 | %13
 [EA]3 [CE] [EA]2 [GB]2 | (c4 d2) [A^d]2 | [Ae]3 A [Ac]2 [GB]2 | A6 |] %17
V:2
 E2 | x8 | x8 | x8 | x6 E2 | x8 | A6 x2 | x8 | x8 | x8 | x8 | x8 | x6 E2 | x8 | A6 x2 | x3 A x4 | %16
 A6 |] %17
V:3
 E,2 | [A,,E,]2 z [A,,A,] [C,A,]2 [E,G,]2 | A,6 A,2 | A,3 A, [G,B,]2 [F,B,]2 | [E,G,]6 E,2 | %5
 [A,,E,]3 [A,,A,] [C,A,]2 [E,E]2 | E4 [F,D]2 [D,D]2 | [E,C]3 [E,C] [E,A,]2 [E,G,]2 | %8
 [A,,A,]6 [A,,A,]2 | [D,A,]3 [D,A,] [D,A,]2 [D,A,]2 | [A,,A,]6 [A,B,]2 | %11
 [A,C]3 A, [G,B,]2 [F,B,]2 | [E,G,]6 E,2 | [A,,E,]3 [A,,A,] [C,A,]2 [E,E]2 | E4 [F,D]2 [=F,^B,]2 | %15
 [E,C]3 [E,C] [E,E]2 [E,D]2 | [A,,C]6 |] %17
V:4
 E,2 | x8 | A,6 A,2 | A,3 A, x4 | x6 E,2 | x8 | A,2 =G,2 x4 | x8 | x8 | x8 | x8 | x3 A, x4 | %12
 x6 E,2 | x8 | A,2 =G,2 x4 | x8 | x6 |] %17

